X:1
T:D Chinder vo Jaun
L:1/16
Q:70
M:2/4
K:C
G2c2 edef | e2d2 dcde | f2B2 dcB2 | cdef g4 | G2c2 edef | e2d2 dcde | f2B2 dcB2 | c2e2 c2z2 ::
BGBd f4 | eage c4 | Bcd2 GAB2 | cBca g4 | BGBd f4 | eage c4 | Bcd2 GAB2 | c2e2 c2z2 :|